src/assets/duotone/HierarchySquare.svg

<?xml version="1.0" encoding="UTF-8"?>
<svg width="24" height="24" viewBox="0 0 24 24" xmlns="http://www.w3.org/2000/svg">
 <path d="m16.19 2h-8.37c-3.64 0-5.81 2.17-5.81 5.81v8.37c0 3.64 2.17 5.81 5.81 5.81h8.37c3.64 0 5.81-2.17 5.81-5.81v-8.37c0-3.64-2.17-5.81-5.81-5.81z" opacity=".4"/>
 <path d="m8.5501 14.55v-4.29c0.84-0.30999 1.45-1.11 1.45-2.06 0-1.21-0.98999-2.2-2.2-2.2s-2.2 0.99001-2.2 2.2c0 0.95 0.61001 1.75 1.45 2.06v4.29c-0.76 0.3-1.3 1.04-1.3 1.9 0 1.13 0.91999 2.05 2.05 2.05s2.05-0.92 2.05-2.05c0-0.86-0.53999-1.6-1.3-1.9z"/>
 <path d="m17.5 14.55v-5.8c0-0.96-0.79-1.75-1.75-1.75h-1.13l0.21-0.17001c0.32-0.27 0.36-0.74 0.1-1.06-0.27-0.32-0.74-0.35997-1.06-0.09997l-1.8 1.5c-0.17 0.14-0.27 0.34998-0.27 0.57998s0.1 0.42999 0.27 0.57999l1.8 1.5c0.14 0.12 0.31 0.17001 0.48 0.17001 0.21 0 0.43-0.08999 0.58-0.26999 0.27-0.32 0.22-0.78999-0.1-1.06l-0.21-0.17002h1.13c0.14 0 0.25 0.11 0.25 0.25v5.8c-0.76 0.3-1.3 1.04-1.3 1.9 0 1.13 0.92 2.05 2.05 2.05s2.05-0.92 2.05-2.05c0-0.86-0.54-1.6-1.3-1.9z"/>
</svg>

<svg width="24" height="24" viewBox="0 0 24 24"  xmlns="http://www.w3.org/2000/svg">
<path opacity="0.4" d="M16.1898 2H7.81976C4.17976 2 2.00977 4.17 2.00977 7.81V16.18C2.00977 19.82 4.17976 21.99 7.81976 21.99H16.1898C19.8298 21.99 21.9998 19.82 21.9998 16.18V7.81C21.9998 4.17 19.8298 2 16.1898 2Z" />
<path d="M8.55011 14.55V10.26C9.39011 9.95001 10.0001 9.15001 10.0001 8.20001C10.0001 6.99001 9.01011 6 7.80011 6C6.59011 6 5.6001 6.99001 5.6001 8.20001C5.6001 9.15001 6.21011 9.95001 7.05011 10.26V14.55C6.29011 14.85 5.75012 15.59 5.75012 16.45C5.75012 17.58 6.67011 18.5 7.80011 18.5C8.93011 18.5 9.8501 17.58 9.8501 16.45C9.8501 15.59 9.31011 14.85 8.55011 14.55Z" />
<path d="M17.5003 14.5497V8.74968C17.5003 7.78968 16.7103 6.99968 15.7503 6.99968H14.6203L14.8303 6.82967C15.1503 6.55967 15.1903 6.08967 14.9303 5.76967C14.6603 5.44967 14.1903 5.4097 13.8703 5.6697L12.0703 7.1697C11.9003 7.3097 11.8003 7.51968 11.8003 7.74968C11.8003 7.97968 11.9003 8.17967 12.0703 8.32967L13.8703 9.82967C14.0103 9.94967 14.1803 9.99968 14.3503 9.99968C14.5603 9.99968 14.7803 9.90969 14.9303 9.72969C15.2003 9.40969 15.1503 8.9397 14.8303 8.6697L14.6203 8.49968H15.7503C15.8903 8.49968 16.0003 8.60968 16.0003 8.74968V14.5497C15.2403 14.8497 14.7003 15.5897 14.7003 16.4497C14.7003 17.5797 15.6203 18.4997 16.7503 18.4997C17.8803 18.4997 18.8003 17.5797 18.8003 16.4497C18.8003 15.5897 18.2603 14.8497 17.5003 14.5497Z" />
</svg>
